X: 25
T: No_32_In_the_West_Is_the_Home_of_the_Raingods.krn
N: Derived from No_32_In_the_West_Is_the_Home_of_the_Raingods.krn
%%abc-version 2.0
%%abcx-abcm2ps-target-version 5.9.1 (29 Sep 2008)
%%abc-creator hum2abc beta
%%abcx-conversion-date 2019/03/15 08:25:35
%%humdrum-veritas 4001777114
%%humdrum-veritas-data 12728950
%%linebreak <none>
%%barnumbers 0
L: 1/8
M: 3/4
%%staves {1 2}
V: 1 clef=bass
V: 2 clef=bass
K: Ab
[V:1] [K:clef=bass][M:3/4]F,F, F,F, F, z ]|:  
[V:2] [K:clef=bass][M:3/4]G,,G,, G,,G,, G,,G,, ]|:  
[V:1] F,F FF FG/F/ | 
[V:2] G,,G,, G,,G,, G,,G,, | 
[V:1] E2B,B, B,C | 
[V:2] G,,G,, G,,G,, G,,G,, | 
[V:1] A,A, F,F, F,B, | 
[V:2] G,,G,, G,,G,, G,,G,, | 
[V:1] A,A, F,F, F,A, | 
[V:2] z6 | 
[V:1] A,A, F,F, z B, | 
[V:2] z6 | 
[V:1] [M:2/4]B,B, B,B, | 
[V:2] [M:2/4]z4 | 
[V:1] [M:3/4]CC A,/F,/F, F,F, | 
[V:2] [M:3/4]z6 | 
[V:1] [M:2/4]B,A, A,A,/F,/ | 
[V:2] [M:2/4]z4 | 
[V:1] [M:3/8]A,/F,/F,B, | 
[V:2] [M:3/8]z3 | 
[V:1] [M:2/4]A,A, F,F, | 
[V:2] [M:2/4]z4 | 
[V:1] F,A, A,A, | 
[V:2] z4 | 
[V:1] F,F, z B, | 
[V:2] z4 | 
[V:1] B,B, B,B, | 
[V:2] z4 | 
[V:1] [M:3/4]CA, A,/F,/F, F,F, | 
[V:2] [M:3/4]z6 | 
[V:1] B,A, A,/F,/F, F,F, | 
[V:2] z6 | 
[V:1] B,A, A,/F,/F, F, z | 
[V:2] z6 | 
[V:1] B,A, A,F, F,F, | 
[V:2] z6 | 
[V:1] [M:2/4]A,A, A,F, | 
[V:2] [M:2/4]z4 | 
[V:1] F,F FF | 
[V:2] z4 | 
[V:1] FG/F/ EE | 
[V:2] z4 | 
[V:1] [M:3/4]B,B, B,C/B,/ A,A, | 
[V:2] [M:3/4]z6 | 
[V:1] F,F, F,A,/F,/ A,A, | 
[V:2] z6 | 
[V:1] [M:2/4]F,F, z A,/F,/ | 
[V:2] [M:2/4]z4 | 
[V:1] [M:7/8]B,B,B,B,C/B,/A,A, | 
[V:2] [M:7/8]z7 | 
[V:1] [M:3/4]F,A, A,A, B,A, | 
[V:2] [M:3/4]z6 | 
[V:1] [M:5/8]F,F,F,F, z | 
[V:2] [M:5/8](3:2:1z15/ | 
[V:1] [M:3/4]A,/F,/F, F,A, F,F, :|]  
[V:2] [M:3/4]z6 :|]  



